X:28
T:Barbados
C:Arr. Will Patton
N:Arranged by Will Patton 
L:1/8
Q:1/4=165
M:4/4
K:F
|: "nc"zE FG AG FE | zE FG AG FE | "F"G3c A3B | "F"(3c2A2 B2 "Bbm"(3_d2a2 g2 | 
"F"eg fc Bd cc | "Cm7"z{A}B cd "F7"_ef dA | "Bb"cF G_A z3F | GF B_A cB _ec | "F"z3c c4 | 
z3A BA cB | "Gm7"AF GA cc2{A}B |3 "C7b9"_da z2 z2 g2 :|


